packages/kaspersky-hexa-ui-icons/src/iconsSVGs/24/SmartHomeMonitor.svg

<svg width="24" height="24" viewBox="0 0 24 24" fill="none" xmlns="http://www.w3.org/2000/svg">
<path d="M2.64767 11.2621L3.00002 10.9626V16.5001C3.00002 18.7093 4.79088 20.5001 7.00002 20.5001H11.126C10.6984 19.9056 10.3768 19.2297 10.189 18.5001H7.00002C5.89545 18.5001 5.00002 17.6047 5.00002 16.5001V9.26256L11.3524 3.86306C11.7258 3.54565 12.2742 3.54565 12.6477 3.86306L19 9.26256V11.8028C19.8028 12.2672 20.488 12.9123 21 13.6824V10.9626L21.3524 11.2621C21.7732 11.6197 22.4043 11.5686 22.762 11.1478C23.1196 10.727 23.0685 10.0959 22.6477 9.73818L13.943 2.33918C12.8227 1.38694 11.1774 1.38694 10.0571 2.33918L1.35237 9.73818C0.931564 10.0959 0.880394 10.727 1.23808 11.1478C1.59577 11.5686 2.22686 11.6197 2.64767 11.2621Z" fill="black"/>
<path d="M16 11.0001C16.3399 11.0001 16.6733 11.0284 16.9978 11.0827C17.0118 10.8786 16.9635 10.6683 16.8461 10.482L16.845 10.4803L16.8438 10.4784L16.841 10.474L16.8339 10.4631C16.8285 10.4548 16.8218 10.4446 16.8138 10.4327C16.7976 10.4088 16.7761 10.3778 16.749 10.3406C16.6949 10.2663 16.6185 10.167 16.5191 10.0512C16.3209 9.82032 16.0273 9.51911 15.6328 9.21908C14.8381 8.61478 13.6308 8.01509 12 8.01509C10.3693 8.01509 9.16198 8.61478 8.36729 9.21908C7.97273 9.51911 7.67916 9.82032 7.48095 10.0512C7.38153 10.167 7.30511 10.2663 7.25104 10.3406C7.22397 10.3778 7.20241 10.4088 7.18628 10.4327C7.17821 10.4446 7.17149 10.4548 7.16611 10.4631L7.15904 10.474L7.15625 10.4784L7.15505 10.4803L7.15449 10.4811C6.86007 10.9484 6.99966 11.5667 7.46693 11.8611C7.93192 12.1541 8.54567 12.0168 8.84177 11.5549L8.8434 11.5525C8.84707 11.5471 8.85525 11.5352 8.868 11.5177C8.89355 11.4826 8.93698 11.4256 8.99851 11.3539C9.1222 11.2098 9.31491 11.011 9.57788 10.8111C10.0982 10.4154 10.8909 10.0151 12 10.0151C13.1091 10.0151 13.9018 10.4154 14.4222 10.8111C14.5631 10.9182 14.6838 11.0251 14.7846 11.1233C15.1771 11.0425 15.5836 11.0001 16 11.0001Z" fill="black"/>
<path fill-rule="evenodd" clip-rule="evenodd" d="M11.4206 13.1232C12.0352 12.3979 12.819 11.8206 13.7111 11.4522C13.273 11.2079 12.7022 11.0151 12 11.0151C11.0542 11.0151 10.3469 11.3648 9.881 11.7191C9.65083 11.8941 9.47883 12.0703 9.3611 12.2075C9.30192 12.2764 9.25546 12.3366 9.22129 12.3836C9.20418 12.4071 9.19005 12.4274 9.17887 12.4439L9.16426 12.4659L9.15858 12.4747L9.15614 12.4785L9.15502 12.4803L9.15396 12.482C8.85954 12.9492 8.99966 13.5667 9.46693 13.8611C9.92928 14.1524 10.5387 14.0183 10.8367 13.5628L10.8382 13.5606C10.8439 13.5529 10.8574 13.535 10.8787 13.5102C10.9219 13.4598 10.993 13.386 11.0916 13.3111C11.1792 13.2445 11.2879 13.1769 11.4206 13.1232ZM10.8367 13.5628L10.8354 13.5646L10.836 13.5637L10.8388 13.5594L10.8367 13.5628ZM9.15396 12.482L9.99984 13.015C9.57703 12.7486 9.36549 12.6154 9.2597 12.5488L9.25816 12.5479C9.15546 12.4832 9.15386 12.4822 9.15396 12.482Z" fill="black"/>
<path fill-rule="evenodd" clip-rule="evenodd" d="M12 17.0001C12 14.791 13.7909 13.0001 16 13.0001C18.2091 13.0001 20 14.791 20 17.0001C20 17.7419 19.7981 18.4366 19.4462 19.0321L21.2071 20.793C21.5976 21.1835 21.5976 21.8167 21.2071 22.2072C20.8166 22.5978 20.1834 22.5978 19.7929 22.2072L18.032 20.4463C17.4365 20.7982 16.7418 21.0001 16 21.0001C13.7909 21.0001 12 19.2093 12 17.0001ZM16 15.0001C14.8954 15.0001 14 15.8956 14 17.0001C14 18.1047 14.8954 19.0001 16 19.0001C17.1046 19.0001 18 18.1047 18 17.0001C18 15.8956 17.1046 15.0001 16 15.0001Z" fill="black"/>
</svg>

<svg xmlns="http://www.w3.org/2000/svg" width="24" height="24" fill="none" viewBox="0 0 24 24"><path fill="#000" fill-rule="evenodd" d="M2.6477 11.2621 3 10.9626v5.5375c0 2.2092 1.7909 4 4 4h4.126a5.98 5.98 0 0 1-.937-2H7c-1.1045 0-2-.8954-2-2V9.2626l6.3524-5.3995a1 1 0 0 1 1.2953 0L19 9.2626v2.5402a6.03 6.03 0 0 1 2 1.8796v-2.7198l.3524.2995c.4208.3576 1.0519.3065 1.4096-.1143s.3065-1.0519-.1143-1.4096l-8.7047-7.399c-1.1203-.9523-2.7656-.9523-3.8859 0l-8.7047 7.399c-.4208.3577-.472.9888-.1143 1.4096s.9888.4719 1.4096.1143M16 11.0001c.3399 0 .6733.0283.9978.0826a.996.996 0 0 0-.1517-.6007l-.0011-.0017-.0012-.0019-.0028-.0044-.0071-.0109-.0201-.0304a3 3 0 0 0-.0648-.0921 4.7 4.7 0 0 0-.2299-.2894 5.8 5.8 0 0 0-.8863-.8321c-.7947-.6043-2.002-1.204-3.6328-1.204-1.6307 0-2.838.5997-3.6327 1.204-.3946.3-.6881.6012-.8863.8321a4.6 4.6 0 0 0-.23.2894 3 3 0 0 0-.0849.1225l-.007.0109-.0028.0044-.0013.0019-.0005.0008c-.2944.4673-.1548 1.0856.3124 1.38.465.293 1.0788.1557 1.3749-.3062l.0016-.0024a1 1 0 0 1 .0246-.0348 2.7 2.7 0 0 1 .1305-.1638 3.8 3.8 0 0 1 .5794-.5428c.5203-.3957 1.313-.796 2.4221-.796s1.9018.4003 2.4222.796c.1409.1071.2616.214.3624.3122A6.02 6.02 0 0 1 16 11.0001m-4.5794 2.1231a6.015 6.015 0 0 1 2.2905-1.671c-.4381-.2443-1.0089-.4371-1.7111-.4371-.9458 0-1.6531.3497-2.119.704a3.4 3.4 0 0 0-.5199.4884 2.8 2.8 0 0 0-.1398.1761 2 2 0 0 0-.0424.0603l-.0146.022-.0057.0088-.0025.0038-.001.0018-.0011.0017c-.2945.4672-.1543 1.0847.313 1.3791.4623.2914 1.0717.1572 1.3697-.2983l.0015-.0022a1 1 0 0 1 .0405-.0504 1.4 1.4 0 0 1 .2129-.1991 1.43 1.43 0 0 1 .329-.1879m-.5839.4396-.0013.0018.0006-.0009.0028-.0043zM9.154 12.482l.8458.533-.7401-.4662-.0015-.0009-.0068-.0043a4 4 0 0 1-.0974-.0616M12 17.0001c0-2.2091 1.7909-4 4-4s4 1.7909 4 4a3.98 3.98 0 0 1-.5538 2.032l1.7609 1.7609c.3905.3905.3905 1.0237 0 1.4142-.3905.3906-1.0237.3906-1.4142 0l-1.7609-1.7609a3.98 3.98 0 0 1-2.032.5538c-2.2091 0-4-1.7908-4-4m4-2c-1.1046 0-2 .8955-2 2s.8954 2 2 2 2-.8954 2-2-.8954-2-2-2"/></svg>
